X:1
T:Rose Tree
L:1/8
M:4/4
I:linebreak $
K:D
V:1 treble nm="Voice" snm="Voice"
V:1
 fe | d2 B2 A2 F2 | ABAF A2 A2 | d2 d2"Em" e2 de | f2 e2 egfe |$ d2 B2 A2 F2 | ABAF A2 A2 | %7
 d2 d2 (3efe de | f2 d2 d2 ::$ e2 | f3 e f2 g2 | a4 g2 f2 |"Em" e2 b2 b3 a | b2 e2 egfe |$ %14
 d2 B2 A2 FG | ABAF A2 FA | d2 cd efe de | f2 d2 d2 :| %18
